gama.ui.shared/icons_svg/light/generic/menu.restart.svg

<svg height="25" viewBox="-460.767 -3656.695 25 25" width="25" xmlns="http://www.w3.org/2000/svg"><g fill="none"><path d="m-456.42726-3656.1946h16.32c2.12076 0 3.84 1.7192 3.84 3.84v16.32c0 2.1206-1.71924 3.84-3.84 3.84h-16.32c-2.12078 0-3.84-1.7194-3.84-3.84v-16.32c0-2.1208 1.71922-3.84 3.84-3.84z" fill="#fff"/><path d="m-456.42726-3656.1946h16.32c2.12076 0 3.84 1.7192 3.84 3.84v16.32c0 2.1206-1.71924 3.84-3.84 3.84h-16.32c-2.12078 0-3.84-1.7194-3.84-3.84v-16.32c0-2.1208 1.71922-3.84 3.84-3.84z" stroke="#000" stroke-linecap="round" stroke-linejoin="round" stroke-width=".25"/><path d="m-450.67615-3646.857h-3.36889c-.73776 0-1.33336.5957-1.33336 1.3335v5.3335c0 .7376.5956 1.333 1.33336 1.333h11.55554c.7378 0 1.33335-.5954 1.33335-1.333v-5.3335c0-.7378-.59555-1.3335-1.33335-1.3335h-3.55554c-.24889 0-.44446-.1954-.44446-.4443 0-.2487.19557-.4444.44446-.4444h3.55554c1.2267 0 2.22224.9957 2.22224 2.2222v5.3335c0 1.2265-.99554 2.222-2.22224 2.222h-11.55554c-1.22666 0-2.22222-.9955-2.22222-2.222v-5.3335c0-1.2265.99556-2.2222 2.22222-2.2222h3.36889l-1.90225-1.9113c-.17775-.1776-.17775-.453 0-.631.1778-.1777.45336-.1777.63114 0l2.66666 2.6667c.1778.1778.1778.4533 0 .6313l-2.66666 2.6665c-.17778.1778-.45334.1778-.63114 0-.17775-.1778-.17775-.4535 0-.6311l1.91114-1.9111z" fill="#66727e"/></g></svg>

<?xml version="1.0" encoding="UTF-8" standalone="no"?>
<!DOCTYPE svg PUBLIC "-//W3C//DTD SVG 1.1//EN" "http://www.w3.org/Graphics/SVG/1.1/DTD/svg11.dtd">
<svg version="1.1" xmlns="http://www.w3.org/2000/svg" xmlns:xl="http://www.w3.org/1999/xlink" xmlns:dc="http://purl.org/dc/elements/1.1/" viewBox="-460.76726 -3656.6946 25 25" width="25" height="25">
  <defs/>
  <g id="SOURCES" stroke-dasharray="none" fill="none" stroke="none" fill-opacity="1" stroke-opacity="1">
    <title>SOURCES</title>
    <g id="SOURCES_Calque_2">
      <title>Calque 2</title>
      <g id="Graphic_9251">
        <path d="M -456.42726 -3656.1946 L -440.10726 -3656.1946 C -437.9865 -3656.1946 -436.26726 -3654.4754 -436.26726 -3652.3546 L -436.26726 -3636.0346 C -436.26726 -3633.914 -437.9865 -3632.1946 -440.10726 -3632.1946 L -456.42726 -3632.1946 C -458.54804 -3632.1946 -460.26726 -3633.914 -460.26726 -3636.0346 L -460.26726 -3652.3546 C -460.26726 -3654.4754 -458.54804 -3656.1946 -456.42726 -3656.1946 Z" fill="white"/>
        <path d="M -456.42726 -3656.1946 L -440.10726 -3656.1946 C -437.9865 -3656.1946 -436.26726 -3654.4754 -436.26726 -3652.3546 L -436.26726 -3636.0346 C -436.26726 -3633.914 -437.9865 -3632.1946 -440.10726 -3632.1946 L -456.42726 -3632.1946 C -458.54804 -3632.1946 -460.26726 -3633.914 -460.26726 -3636.0346 L -460.26726 -3652.3546 C -460.26726 -3654.4754 -458.54804 -3656.1946 -456.42726 -3656.1946 Z" stroke="black" stroke-linecap="round" stroke-linejoin="round" stroke-width=".25"/>
      </g>
      <g id="Group_9317">
        <title>restart</title>
        <g id="Graphic_9318">
          <path d="M -450.67615 -3646.857 L -454.04504 -3646.857 C -454.7828 -3646.857 -455.3784 -3646.2613 -455.3784 -3645.5235 L -455.3784 -3640.19 C -455.3784 -3639.4524 -454.7828 -3638.857 -454.04504 -3638.857 L -442.4895 -3638.857 C -441.7517 -3638.857 -441.15615 -3639.4524 -441.15615 -3640.19 L -441.15615 -3645.5235 C -441.15615 -3646.2613 -441.7517 -3646.857 -442.4895 -3646.857 L -446.04504 -3646.857 C -446.29393 -3646.857 -446.4895 -3647.0524 -446.4895 -3647.3013 C -446.4895 -3647.55 -446.29393 -3647.7457 -446.04504 -3647.7457 L -442.4895 -3647.7457 C -441.2628 -3647.7457 -440.26726 -3646.75 -440.26726 -3645.5235 L -440.26726 -3640.19 C -440.26726 -3638.9635 -441.2628 -3637.968 -442.4895 -3637.968 L -454.04504 -3637.968 C -455.2717 -3637.968 -456.26726 -3638.9635 -456.26726 -3640.19 L -456.26726 -3645.5235 C -456.26726 -3646.75 -455.2717 -3647.7457 -454.04504 -3647.7457 L -450.67615 -3647.7457 L -452.5784 -3649.657 C -452.75615 -3649.8346 -452.75615 -3650.11 -452.5784 -3650.288 C -452.4006 -3650.4657 -452.12504 -3650.4657 -451.94726 -3650.288 L -449.2806 -3647.6213 C -449.1028 -3647.4435 -449.1028 -3647.168 -449.2806 -3646.99 L -451.94726 -3644.3235 C -452.12504 -3644.1457 -452.4006 -3644.1457 -452.5784 -3644.3235 C -452.75615 -3644.5013 -452.75615 -3644.777 -452.5784 -3644.9546 L -450.66726 -3646.8657 Z" fill="#66727e"/>
        </g>
      </g>
    </g>
  </g>
</svg>
